!!!OTL-incipit: ES RITTEN DREI REUTER ZUM THOR HINAUS
!!!ARE: Europa, Mitteleuropa, Deutschland
!!!SCT: Z0033
!!!TXL: @@DE
!!!YEM: Copyright 1995, estate of Helmut Schaffrath.
**kern	**text
*ICvox	*
*M6/8	*
*k[f#]	*
*G:	*
!LO:TX:a:t=Deutſch.	!
{8d	Es
=1	=1
8g	rit-
8g	-ten
8g	drei
8g	Reu-
8a	-ter
8b/	ʒum
=2	=2
8b/	Thor
8a	.
8a	hin-
4a	-aus,
8dd	A-
=3	=3
4.b/	-de!
4r}	.
{8d	Feins
=4	=4
8g	Lieb-
8g	-chen,
8g	das
8g	guck-
8a	-te
8b/	ʒum
=5	=5
8b/	Fen-
8a	-ſter
8a	hin-
4a	-aus,
8dd	A-
=6	=6
4.b/	-de!
4r}	.
=||	=||
{8g	Und
=7	=7
8dd	ſoll
8dd	.
8dd	es
8.dd	denn
16ee	.
8dd	ge-
=8	=8
8cc	-ſchie-
8cc	.
8cc	-den
8.cc	ſeyn,
16dd}	.
{8cc	ſo
=9	=9
8b	reich
8b	mir
8b	dein
8dd	gol-
8cc	-de
8b	nes
=10	=10
4a	Rin-
8a	-ge-
4a}	-lein,
{8dd	A-
=11	=11
8.b	-de!
16cc	.
8b	A-
8.a	-de!
16g	.
8a	A-
=12	=12
4.b}	-de!
{4.dd	Ja
=13	=13
8.b	Schei-
16cc	-den
8b	und
8.a	Mei-
16g	-den
8a	thut
=14	=14
4.g	weh.
4r}	.
==:|;;	==:|;;
!!!AGN: Sagen - Lied, Romanze
!!!ONB: ESAC (Essen Associative Code) Database: ZUCCAL
!!!AMT: compound duple
!!!AIN: vox
!!!EED: Helmut Schaffrath
!!!EEV: 1.0
!!!GTL: I. Ernste Romanzen und Sagen.
!!!URL-scan: https://www.digitale-sammlungen.de/de/view/bsb11160571?page=69
!!!ENC: Anna Maria Matuszewska
!!!EEV: 2025/01/23
*-	*-
